icons-dark/apps/48/ark.svg

<svg width="48" xmlns="http://www.w3.org/2000/svg" height="48" xmlns:xlink="http://www.w3.org/1999/xlink">
 <defs>
  <linearGradient id="a" y1="543.8" y2="503.8" x2="0" gradientUnits="userSpaceOnUse" gradientTransform="matrix(1.125 0 0 1-51.07 0)">
   <stop stop-color="#c6cdd1"/>
   <stop offset="1" stop-color="#e0e5e7"/>
  </linearGradient>
  <linearGradient id="b" y1="543.8" y2="503.8" x2="0" gradientUnits="userSpaceOnUse">
   <stop stop-color="#1d1e1e"/>
   <stop offset="1" stop-color="#44484c"/>
  </linearGradient>
  <linearGradient xlink:href="#a" id="c" y1="506.8" y2="504.8" x2="0" gradientUnits="userSpaceOnUse"/>
  <linearGradient xlink:href="#a" id="d" y1="508.8" y2="506.8" gradientUnits="userSpaceOnUse" x2="0"/>
  <linearGradient xlink:href="#a" id="e" y1="510.8" y2="508.8" gradientUnits="userSpaceOnUse" x2="0"/>
  <linearGradient xlink:href="#a" id="f" y1="512.8" y2="510.8" gradientUnits="userSpaceOnUse" x2="0"/>
  <linearGradient xlink:href="#a" id="g" y1="514.8" y2="512.8" gradientUnits="userSpaceOnUse" x2="0"/>
  <linearGradient xlink:href="#a" id="h" y1="516.8" y2="514.8" gradientUnits="userSpaceOnUse" x2="0"/>
  <linearGradient xlink:href="#a" id="i" y1="518.8" y2="516.8" gradientUnits="userSpaceOnUse" x2="0"/>
  <linearGradient xlink:href="#a" id="j" y1="520.8" y2="518.8" gradientUnits="userSpaceOnUse" x2="0"/>
  <linearGradient xlink:href="#a" id="k" y1="523.8" y2="520.8" gradientUnits="userSpaceOnUse" x2="0"/>
  <linearGradient xlink:href="#a" id="l" y1="33" y2="25" x2="0" gradientUnits="userSpaceOnUse"/>
  <linearGradient id="m" y1="7" x1="10" y2="32" x2="35" gradientUnits="userSpaceOnUse">
   <stop stop-color="#383e51"/>
   <stop offset="1" stop-color="#655c6f" stop-opacity="0"/>
  </linearGradient>
 </defs>
 <g transform="translate(-384.57-499.8)">
  <g stroke-opacity=".55" stroke-width="2.8">
   <rect width="36" x="390.57" y="503.8" fill="url(#a)" height="40"/>
   <rect width="8" x="404.57" y="503.8" fill="url(#b)" height="40"/>
  </g>
  <path opacity=".2" fill="url(#m)" fill-rule="evenodd" d="m28 7v3h-3l3 3v1h-3l3 3v1h-3l3 3v1h-3l17 17v-18l-2-2zm-2 18v4h-1v4h-2l11 11h8v-3l-2-2z" transform="translate(384.57 499.8)"/>
  <g stroke-opacity=".55" stroke-width="2.8">
   <path fill="url(#c)" d="m404.57 504.8v3h3v-1h1v-1h-1v-1z"/>
   <path fill="url(#d)" d="m412.57 506.8v3h-3v-1h-1v-1h1v-1z"/>
   <path fill="url(#e)" d="m404.57 508.8v3h3v-1h1v-1h-1v-1z"/>
   <path fill="url(#f)" d="m412.57 510.8v3h-3v-1h-1v-1h1v-1z"/>
   <path fill="url(#g)" d="m404.57 512.8v3h3v-1h1v-1h-1v-1z"/>
   <path fill="url(#h)" d="m412.57 514.8v3h-3v-1h-1v-1h1v-1z"/>
   <path fill="url(#i)" d="m404.57 516.8v3h3v-1h1v-1h-1v-1z"/>
   <path fill="url(#j)" d="m412.57 518.8v3h-3v-1h-1v-1h1v-1z"/>
   <path fill="url(#k)" d="m404.57 520.8v3h3v-1h1v-1h-1v-1z"/>
   <path fill="url(#l)" d="m22 25v4h1v4h2v-4h1v-4zm1 1h2v2h-2z" transform="translate(384.57 499.8)"/>
   <rect width="36" x="390.57" y="542.8" fill="#99a1a7" height="1"/>
  </g>
 </g>
</svg>

<?xml version="1.0" encoding="UTF-8" standalone="no"?>

<!-- Created with Inkscape (http://www.inkscape.org/) -->
<svg width="48" version="1.1" xmlns="http://www.w3.org/2000/svg" height="48" xmlns:xlink="http://www.w3.org/1999/xlink" xmlns:inkscape="http://www.inkscape.org/namespaces/inkscape">
 <defs id="defs5455">
  <linearGradient inkscape:collect="always" id="linearGradient4303">
   <stop style="stop-color:#c6cdd1" id="stop4305"/>
   <stop offset="1" style="stop-color:#e0e5e7" id="stop4307"/>
  </linearGradient>
  <linearGradient inkscape:collect="always" xlink:href="#linearGradient4303" id="linearGradient4403" y1="543.79797" y2="503.798" x2="0" gradientUnits="userSpaceOnUse" gradientTransform="matrix(1.125 0 0 1 -51.07144 0)"/>
  <linearGradient inkscape:collect="always" id="linearGradient4159">
   <stop style="stop-color:#1d1e1e" id="stop4161"/>
   <stop offset="1" style="stop-color:#44484c" id="stop4163"/>
  </linearGradient>
  <linearGradient inkscape:collect="always" xlink:href="#linearGradient4159" id="linearGradient4225" y1="543.79797" y2="503.798" x2="0" gradientUnits="userSpaceOnUse"/>
  <linearGradient inkscape:collect="always" xlink:href="#linearGradient4303" id="linearGradient4298" y1="507.798" y2="503.798" x2="0" gradientUnits="userSpaceOnUse" gradientTransform="matrix(0.5 0 0 0.5 202.28571 252.899)"/>
  <linearGradient inkscape:collect="always" xlink:href="#linearGradient4303" id="linearGradient4316" y1="507.798" y2="503.798" gradientUnits="userSpaceOnUse" x2="0" gradientTransform="matrix(-0.5 0 0 0.5 614.85717 254.899)"/>
  <linearGradient inkscape:collect="always" xlink:href="#linearGradient4303" id="linearGradient4322" y1="507.798" y2="503.798" gradientUnits="userSpaceOnUse" x2="0" gradientTransform="matrix(0.5 0 0 0.5 202.28571 256.899)"/>
  <linearGradient inkscape:collect="always" xlink:href="#linearGradient4303" id="linearGradient4324" y1="507.798" y2="503.798" gradientUnits="userSpaceOnUse" x2="0" gradientTransform="matrix(-0.5 0 0 0.5 614.85717 258.899)"/>
  <linearGradient inkscape:collect="always" xlink:href="#linearGradient4303" id="linearGradient4330" y1="507.798" y2="503.798" gradientUnits="userSpaceOnUse" x2="0" gradientTransform="matrix(0.5 0 0 0.5 202.28571 260.899)"/>
  <linearGradient inkscape:collect="always" xlink:href="#linearGradient4303" id="linearGradient4332" y1="507.798" y2="503.798" gradientUnits="userSpaceOnUse" x2="0" gradientTransform="matrix(-0.5 0 0 0.5 614.85717 262.899)"/>
  <linearGradient inkscape:collect="always" xlink:href="#linearGradient4303" id="linearGradient4338" y1="507.798" y2="503.798" gradientUnits="userSpaceOnUse" x2="0" gradientTransform="matrix(0.5 0 0 0.5 202.28571 264.899)"/>
  <linearGradient inkscape:collect="always" xlink:href="#linearGradient4303" id="linearGradient4340" y1="507.798" y2="503.798" gradientUnits="userSpaceOnUse" x2="0" gradientTransform="matrix(-0.5 0 0 0.5 614.85717 266.899)"/>
  <linearGradient inkscape:collect="always" xlink:href="#linearGradient4303" id="linearGradient4346" y1="509.798" y2="503.798" gradientUnits="userSpaceOnUse" x2="0" gradientTransform="matrix(0.5 0 0 0.5 202.28571 268.899)"/>
  <linearGradient inkscape:collect="always" xlink:href="#linearGradient4303" id="linearGradient4402" y1="33" y2="25" x2="0" gradientUnits="userSpaceOnUse"/>
  <linearGradient inkscape:collect="always" id="linearGradient4410">
   <stop style="stop-color:#383e51" id="stop4412"/>
   <stop offset="1" style="stop-color:#655c6f;stop-opacity:0" id="stop4414"/>
  </linearGradient>
  <linearGradient inkscape:collect="always" xlink:href="#linearGradient4410" id="linearGradient4394" y1="7" x1="10" y2="32" x2="35" gradientUnits="userSpaceOnUse"/>
 </defs>
 <metadata id="metadata5458"/>
 <g inkscape:label="Capa 1" inkscape:groupmode="layer" id="layer1" transform="matrix(1 0 0 1 -384.57143 -499.798)">
  <rect width="36" x="390.57144" y="503.798" height="39.999969" style="stroke-opacity:0.550265;fill:url(#linearGradient4403);stroke-width:2.8" id="rect4319"/>
  <rect width="8" x="404.57144" y="503.798" height="39.999973" style="stroke-opacity:0.550265;fill:url(#linearGradient4225);stroke-width:2.8" id="rect4149"/>
  <path style="fill:url(#linearGradient4394);opacity:0.2;fill-rule:evenodd" id="path4404" d="M 28 7 L 28 10 L 25 10 L 28 13 L 28 14 L 25 14 L 28 17 L 28 18 L 25 18 L 28 21 L 28 22 L 25 22 L 40 37 L 42 39 L 42 21 L 40 19 L 28 7 z M 26 25 L 26 29 L 25 29 L 25 33 L 23 33 L 34 44 L 42 44 L 42 41 L 40 39 L 26 25 z " transform="matrix(1 0 0 1 384.57143 499.798)"/>
  <path inkscape:connector-curvature="0" style="stroke-opacity:0.550265;fill:url(#linearGradient4298);stroke-width:2.8" id="rect4134" d="m 404.57144,504.798 0,3 3,0 0,-1 1,0 0,-1 -1,0 0,-1 -3,0 z"/>
  <path inkscape:connector-curvature="0" style="stroke-opacity:0.550265;fill:url(#linearGradient4316);stroke-width:2.8" id="path4314" d="m 412.57144,506.798 0,3 -3,0 0,-1 -1,0 0,-1 1,0 0,-1 3,0 z"/>
  <path inkscape:connector-curvature="0" style="stroke-opacity:0.550265;fill:url(#linearGradient4322);stroke-width:2.8" id="path4318" d="m 404.57144,508.798 0,3 3,0 0,-1 1,0 0,-1 -1,0 0,-1 -3,0 z"/>
  <path inkscape:connector-curvature="0" style="stroke-opacity:0.550265;fill:url(#linearGradient4324);stroke-width:2.8" id="path4320" d="m 412.57144,510.798 0,3 -3,0 0,-1 -1,0 0,-1 1,0 0,-1 3,0 z"/>
  <path inkscape:connector-curvature="0" style="stroke-opacity:0.550265;fill:url(#linearGradient4330);stroke-width:2.8" id="path4326" d="m 404.57144,512.798 0,3 3,0 0,-1 1,0 0,-1 -1,0 0,-1 -3,0 z"/>
  <path inkscape:connector-curvature="0" style="stroke-opacity:0.550265;fill:url(#linearGradient4332);stroke-width:2.8" id="path4328" d="m 412.57144,514.798 0,3 -3,0 0,-1 -1,0 0,-1 1,0 0,-1 3,0 z"/>
  <path inkscape:connector-curvature="0" style="stroke-opacity:0.550265;fill:url(#linearGradient4338);stroke-width:2.8" id="path4334" d="m 404.57144,516.798 0,3 3,0 0,-1 1,0 0,-1 -1,0 0,-1 -3,0 z"/>
  <path inkscape:connector-curvature="0" style="stroke-opacity:0.550265;fill:url(#linearGradient4340);stroke-width:2.8" id="path4336" d="m 412.57144,518.798 0,3 -3,0 0,-1 -1,0 0,-1 1,0 0,-1 3,0 z"/>
  <path inkscape:connector-curvature="0" style="stroke-opacity:0.550265;fill:url(#linearGradient4346);stroke-width:2.8" id="path4342" d="m 404.57144,520.798 0,3 3,0 0,-1 1,0 0,-1 -1,0 0,-1 -3,0 z"/>
  <path style="stroke-opacity:0.550265;fill:url(#linearGradient4402);stroke-width:2.8" id="rect4388" d="M 22 25 L 22 29 L 23 29 L 23 33 L 25 33 L 25 29 L 26 29 L 26 25 L 22 25 z M 23 26 L 25 26 L 25 28 L 23 28 L 23 26 z " transform="matrix(1 0 0 1 384.57143 499.798)"/>
  <rect width="35.999989" x="390.57144" y="542.79797" height="1" style="stroke-opacity:0.550265;fill:#99a1a7;stroke-width:2.8" id="rect4492"/>
 </g>
</svg>
